src/client/web-contents/img/common/badge/badge_family_06.svg

<svg height="32" viewBox="0 0 84 32" width="84" xmlns="http://www.w3.org/2000/svg"><g fill="none" fill-rule="evenodd"><rect fill="#119ed7" height="32" rx="4" width="84"/><path d="m18 12.84v-1.68h2.58v-4.16h2.06v11.36h-2.06v-2.18h-2.58v-1.64h2.58v-1.7zm-2.34-4.04h-5.22v-1.64h5.22zm1.94 2.64h-9.6v-1.62h9.6zm-.42 3.58c0 1.74-1.8 2.92-4.16 2.92-2.38 0-4.2-1.18-4.2-2.94 0-1.74 1.8-2.92 4.2-2.92 2.36 0 4.16 1.18 4.16 2.94zm-2-.02c0-.88-1.02-1.4-2.16-1.4-1.18 0-2.2.52-2.2 1.4s1.04 1.44 2.2 1.44c1.14 0 2.16-.56 2.16-1.44zm7.56 6.7c0 1.94-2.18 3.18-6.02 3.18s-6-1.24-6-3.18c0-1.9 2.16-3.16 6-3.16s6.02 1.26 6.02 3.16zm-6.02-1.58c-2.46 0-3.88.66-3.88 1.6 0 .96 1.42 1.6 3.88 1.6 2.5 0 3.9-.64 3.9-1.6s-1.4-1.6-3.9-1.6zm16.36-.92-1.2 1.48c-1.2-.76-2.76-2.66-3.24-4.36-.4 1.76-1.94 3.8-3.48 4.76l-1.28-1.38c2.36-1.56 3.78-4.16 3.78-7.68v-1.32h-3.14v-1.66h8.06v1.66h-2.92v1.26c0 3.54 1.42 6.08 3.42 7.24zm2.66 4.78h-1.92v-8.94h-2.44v-1.7h2.44v-5.98h1.92zm3.54.84h-1.96v-17.82h1.96zm16.38-5.68-1.18 1.48c-1.66-.92-3.82-3.2-4.38-5.04-.46 1.9-2.24 4.26-4.4 5.44l-1.28-1.52c2.84-1.58 4.62-4.46 4.62-8.04v-.94h-3.72v-1.66h9.46v1.66h-3.62v.94c0 3.62 1.9 6.24 4.5 7.68zm3-12.14v6.98h2.7v1.72h-2.7v9.12h-2.06v-17.82zm10.16 2.16v10.94h-7.12v-10.94zm7.32 15.66h-1.98v-9.02h-1.68v8.18h-1.94v-16.62h1.94v6.72h1.68v-7.08h1.98zm-9.24-6.32v-7.72h-3.26v7.72z" fill="#fff"/></g></svg>

<?xml version="1.0" encoding="UTF-8" standalone="no"?>
<svg width="84px" height="32px" viewBox="0 0 84 32" version="1.1" xmlns="http://www.w3.org/2000/svg" xmlns:xlink="http://www.w3.org/1999/xlink">
    <!-- Generator: Sketch 50.2 (55047) - http://www.bohemiancoding.com/sketch -->
    <title>graphic_badge_family_06</title>
    <desc>Created with Sketch.</desc>
    <defs></defs>
    <g id="Icon_Badge_Graphic" stroke="none" stroke-width="1" fill="none" fill-rule="evenodd">
        <g id="##Element/Badge/Family06">
            <rect id="Rectangle-2" fill="#119ED7" x="0" y="0" width="84" height="32" rx="4"></rect>
            <path d="M18,12.84 L18,11.16 L20.58,11.16 L20.58,7 L22.64,7 L22.64,18.36 L20.58,18.36 L20.58,16.18 L18,16.18 L18,14.54 L20.58,14.54 L20.58,12.84 L18,12.84 Z M15.66,8.8 L10.44,8.8 L10.44,7.16 L15.66,7.16 L15.66,8.8 Z M17.6,11.44 L8,11.44 L8,9.82 L17.6,9.82 L17.6,11.44 Z M17.18,15.02 C17.18,16.76 15.38,17.94 13.02,17.94 C10.64,17.94 8.82,16.76 8.82,15 C8.82,13.26 10.62,12.08 13.02,12.08 C15.38,12.08 17.18,13.26 17.18,15.02 Z M15.18,15 C15.18,14.12 14.16,13.6 13.02,13.6 C11.84,13.6 10.82,14.12 10.82,15 C10.82,15.88 11.86,16.44 13.02,16.44 C14.16,16.44 15.18,15.88 15.18,15 Z M22.74,21.7 C22.74,23.64 20.56,24.88 16.72,24.88 C12.88,24.88 10.72,23.64 10.72,21.7 C10.72,19.8 12.88,18.54 16.72,18.54 C20.56,18.54 22.74,19.8 22.74,21.7 Z M16.72,20.12 C14.26,20.12 12.84,20.78 12.84,21.72 C12.84,22.68 14.26,23.32 16.72,23.32 C19.22,23.32 20.62,22.68 20.62,21.72 C20.62,20.76 19.22,20.12 16.72,20.12 Z M33.08,19.2 L31.88,20.68 C30.68,19.92 29.12,18.02 28.64,16.32 C28.24,18.08 26.7,20.12 25.16,21.08 L23.88,19.7 C26.24,18.14 27.66,15.54 27.66,12.02 L27.66,10.7 L24.52,10.7 L24.52,9.04 L32.58,9.04 L32.58,10.7 L29.66,10.7 L29.66,11.96 C29.66,15.5 31.08,18.04 33.08,19.2 Z M35.74,23.98 L33.82,23.98 L33.82,15.04 L31.38,15.04 L31.38,13.34 L33.82,13.34 L33.82,7.36 L35.74,7.36 L35.74,23.98 Z M39.28,24.82 L37.32,24.82 L37.32,7 L39.28,7 L39.28,24.82 Z M55.66,19.14 L54.48,20.62 C52.82,19.7 50.66,17.42 50.1,15.58 C49.64,17.48 47.86,19.84 45.7,21.02 L44.42,19.5 C47.26,17.92 49.04,15.04 49.04,11.46 L49.04,10.52 L45.32,10.52 L45.32,8.86 L54.78,8.86 L54.78,10.52 L51.16,10.52 L51.16,11.46 C51.16,15.08 53.06,17.7 55.66,19.14 Z M58.66,7 L58.66,13.98 L61.36,13.98 L61.36,15.7 L58.66,15.7 L58.66,24.82 L56.6,24.82 L56.6,7 L58.66,7 Z M68.82,9.16 L68.82,20.1 L61.7,20.1 L61.7,9.16 L68.82,9.16 Z M76.14,24.82 L74.16,24.82 L74.16,15.8 L72.48,15.8 L72.48,23.98 L70.54,23.98 L70.54,7.36 L72.48,7.36 L72.48,14.08 L74.16,14.08 L74.16,7 L76.14,7 L76.14,24.82 Z M66.9,18.5 L66.9,10.78 L63.64,10.78 L63.64,18.5 L66.9,18.5 Z" id="형제-자매" fill="#FFFFFF"></path>
        </g>
    </g>
</svg>
